X:125
T:Free Mason THO4.125, The
M:6/8
L:1/8
Z:vmp. Peter Dunk 2010/11.from a transcription by Fynn Titford-Mock 2007
B:Thompson's Compleat Collection of 200 Favourite Country Dances Volume IV.
Q:3/8=100
K:A
E|AGA BAB|cBA B2 B|cBc FBA|GEE E2 E|\
AGA BAB|cBA B2 B|cBA cBA|eee e2:|
|:c|def fed|cde edc|dcd FBA|GEE E2 c|\
def fed|cde edc|dcd Bed|cAA A2:|
K:C
|:B|cBA cBA|BEE E2 B|cBA d2 c|{c}B3 ABc|\
cBA cBA|B2 E E2 a|edc BA^G|A3-A2:|
|:c/d/|e2 e efe|d2 zzAB|c2 c cdc|B2 zzAB|\
cBA edc|a^ga afd|edc BA^G|A3-A2:|
